X: 43385
T: Wriggle Room, The
R: polka
M: 2/4
K: Dmajor
|:A2AF|AB dB|~B2fd|ed BF|
A2AF|AB dB|~B2fd|1 ed dB:|2 ed d2||
|:af ed|a/b/a/f/ dA|Bd fg|fe e2|
af ed|a/b/a/f/ dA|AB df|1 ed d2:|2 ed d/e/f||
g>f ed|e/f/a A>B|Bd fg|fe ef|
g>f ed|e/f/a A2|AB df|ed d/e/f|
g>f ed|e/f/a A>B|Bd fg|fe ef|
g>f ef|d/d/B AF|AB df|ed dB||

